!!!OTL: DEM LAND WO MEINE WIEGE STAND
!!!ARE: Europa, Mitteleuropa, Deutschland
!!!SCT: F0457
!!!YEM: Copyright 1995, estate of Helmut Schaffrath.
**kern
*ICvox
*Ivox
*M4/4
*k[f#c#g#]
*A:
{4e
=1
4.a
8a
4g#
4a
=2
4.b
8cc#
4b}
{4b
=3
4cc#
4cc#
4.dd#
8dd#
=4
2ee
4r}
{4e
=5
4.e
8e
4f#
4e
=6
4.cc#
8b
4a}
{4a
=7
4b
4b
4.dd
8dd
=8
2cc#
4cc#}
{4cc#
=9
4b
4ff#
4.ee
8g#
=10
2.a}
==
!!!AGN: Vaterlands -, Heimat - Lied
!!!ONB: ESAC (Essen Associative Code) Database: FINK
!!!AMT: simple quadruple
!!!AIN: vox
!!!EED: Helmut Schaffrath
!!!EEV: 1.0
*-
